**kern
*clefF4
*k[b-e-]
*M4/4
8d
=1
[8b-L
8GJ 8b-]
8AL 8a
8B-J 8g
[8cL [8d [8f#X
8cJ_ 8d_ 8f#_ 8a
8cL_ 8d_ 8f#_ 8a
8cJ] 8d] 8f#] 8dd
=2
[16GLL [16B- [16g 16dd
16GJ_ 16B-_ 16g_ 16cc#X
16GL_ 16B-_ 16g_ 16dd
16GJJ_ 16B-_ 16g] 16cc#X
8GL] 8B-] 8dd
8B-J 8d 8g
8AL 8cn 8f#X
8GJ 8B- 8g
8F#XL 8A 8a
8EnJ 8G 8b-
=3
[8DL [8F#X 8dd
8DJ] 8F#] 8cc
8aaL
8gJ
8f#XL
8gJ
8aL
8b-J
=4
8ddL
8ccJ
4aa 4ccc
4.r
8d
=5
[8b-L
8GJ 8b-]
8AL 8a
8B-J 8g
[8cL [8d [8f#X
8cJ_ 8d_ 8f#_ 8a
8cL_ 8d_ 8f#_ 8a
8cJ] 8d_ 8f#] 8dd
=6
[16B-LL 16d_ [16g 16dd
16B-J_ 16d_ 16g_ 16cc#X
16B-L_ 16d_ 16g_ 16dd
16B-JJ_ 16d_ 16g_ 16cc#X
8B-L_ 8d] 8g_ [8dd
8GJ 8B-] 8g] 8dd]
[8cnL [8d [8f#X
8cJ_ 8d_ 8f#_ 8a
8cL_ 8d_ 8f#_ 8a
8cJ] 8d_ 8f#] 8dd
=7
[16B-LL 16d_ [16g 16dd
16B-J_ 16d_ 16g_ 16cc#X
16B-L_ 16d_ 16g_ 16dd
16B-JJ] 16d] 16g] 16cc#X
8ddL
8ggJ
16ggLL
16ff#XJ
16ggL
16ff#XJJ
8ggL
8bb-J
=8
4bb-
4G 4e- 4b- 4cc#X
4F#X 4d 4ccn 4aa
8r
8cc
=9
[16GLL [16d 16b-
16GJ_ 16d_ 16a
16GL_ 16d_ 16b-
16GJJ] 16d] 16a
8b-L
8ee-J
[16CLL [16A-X [16e- 16a-X
16CJ_ 16A-_ 16e-_ 16g
16CL_ 16A-_ 16e-_ 16a-X
16CJJ] 16A-] 16e-] 16g
8a-XL
8ccJ
=10
16DLL 16d
16C#XJ 16c#X
16DL 16d
16C#XJJ 16c#X
8DL 8d
8F#XJ 8f#X
4GG 4G
8r
8d
=11
[8b-L
8GJ 8b-]
8AL 8a
8B-J 8g
[8cL [8d [8f#X
8cJ_ 8d_ 8f#_ 8a
8cL_ 8d_ 8f#_ 8a
8cJ] 8d_ 8f#] 8dd
=12
[16B-LL 16d_ [16g 16dd
16B-J_ 16d_ 16g_ 16cc#X
16B-L_ 16d_ 16g_ 16dd
16B-JJ] 16d] 16g] 16cc#X
4dd
4.r
8B- 8b-
=13
4e- 4ee-
8B-L 8b-
8GJ 8g
4E- 4e-
4D-X 4d-X
=14
4C 4c
4BB- 4B-
[4AA 4A
4AA] 4e- 4g-X
=15
[16ALL 16f [16cc [16ee-
16AJ] 16en 16cc_ 16ee-_
[16AL 16f 16cc_ 16ee-_
16AJJ] 16en 16cc_ 16ee-_
8AL 8f 8cc_ 8ee-_
8AJ 8cc] 8ee-]
[16B-LL 16f [16b- [16dd
16B-J] 16en 16b-_ 16dd_
[16B-L 16f 16b-_ 16dd_
16B-JJ] 16en 16b-_ 16dd_
8B-L 8f 8b-_ 8dd_
8B-J 8b-] 8dd]
=16
[16E-LL 16f [16cc [16aa
16E-J] 16en 16cc_ 16aa_
[16E-XL 16f 16cc_ 16aa_
16E-JJ] 16en 16cc_ 16aa_
8E-XL 8f 8cc_ 8aa_
8E-J 8cc] 8aa]
[16DLL 16f [16b- [16bb-
16DJ] 16en 16b-_ 16bb-_
[16DL 16f 16b-_ 16bb-_
16DJJ] 16en 16b-_ 16bb-_
8DL 8f 8b-_ 8bb-_
8DJ 8b-] 8bb-]
=17
[16GLL [16en [16g 16b-
16GJ] 16e_ 16g_ 16a
[16GL 16e_ 16g_ 16b-
16GJJ] 16e_ 16g] 16a
[16GLL [16c 16e_ 16b-
16GJ] 16c_ 16e_ 16dd
[16GL 16c_ 16e_ 16cc
16GJJ] 16c] 16e] 16b-
4F 4c 4f 4a
8r
8F
=18
[8dL
8B-J 8d]
8cL
8B-J 8d
[8AL [8e- [8f
8AJ_ 8e-_ 8f_ 8cc
8AL_ 8e-_ 8f_ 8cc
8AJ] 8e-] 8f_ 8ff
=19
[16B-LL [16d 16f_ 16ff
16B-J_ 16d_ 16f_ 16een
16B-L_ 16d_ 16f_ 16ff
16B-JJ_ 16d_ 16f_ 16een
8B-L_ 8d_ 8f] [8ff
8B-J] 8d] 8b- 8ff]
[8AL [8e-X [8f
8AJ_ 8e-_ 8f_ 8cc
8AL_ 8e-_ 8f_ 8cc
8AJ] 8e-] 8f_ 8ff
=20
[16B-LL [16d 16f_ 16ff
16B-J_ 16d_ 16f_ 16een
16B-L_ 16d_ 16f_ 16ff
16B-JJ_ 16d_ 16f_ 16een
8B-L_ 8d_ 8f] [8ff
8B-J] 8d] 8b- 8ff]
[8cL [8e-X [8a
8cJ_ 8e-_ 8a_ 8ff
8cL_ 8e-_ 8a] 8ff
8cJ] 8e-] 8f 8aa
=21
[16B-LL [16d [16f 16bb-
16B-J_ 16d_ 16f_ 16aa
16B-L_ 16d_ 16f_ 16bb-
16B-JJ] 16d] 16f] 16aa
8bb-L
8dddJ
[16B-LL [16e- [16b- 16gg
16B-J_ 16e-_ 16b-_ 16ff#X
16B-L_ 16e-_ 16b-_ 16gg
16B-JJ] 16e-] 16b-] 16ff#X
8ggL
8bb-J
=22
[16E-LL [16e- [16g 16cc
16E-J_ 16e-_ 16g_ 16bn
16E-L_ 16e-_ 16g_ 16cc
16E-JJ] 16e-] 16g] 16bn
16ccLL
16ee-J
16e-L
16ee-JJ
8e-L
8ggJ
8ggL
8ggJ
=23
[16E-LL [16c [16g 16cc
16E-J_ 16c_ 16g_ 16bn
16E-L_ 16c_ 16g_ 16cc
16E-JJ] 16c] 16g] 16bn
16ccLL
16ee-J
16e-L
16ee-JJ
8e-L
8bb-XJ
8bb-L
8bb-J
=24
[2G [2B- [2d-X
8GL_ 8B-_ 8d-_ 8en]
8GJ_ 8B-_ 8d-]
8GL_ 8B-_ 8c
8GJ] 8B-]
=25
[8FL 8A [8c 8f
8FJ] 8c] 8g
8aL
8b-J
8ccL
8ddJ
8ee-L
8ffJ
=26
8ggL
8aaJ
8bb-L
8cccJ
8dddL
8eee-J
[8E-L [8f 8a 8ccc
8E-J] 8f] 8cc 8aa
=27
[8DL [8f [8b- 8bb-
8DJ] 8f] 8b-] 8ddd
8ffL
8aa-XJ
[8E-L [8e- [8b- 8ff#X
8E-J] 8e-] 8b-] 8gg
8aanL
8bb-J
=28
8bnL
8ccJ
8ddL
8ee-J
8fL
8ddJ 8ff
8ccL 8ee-
8FJ 8a 8cc
=29
4d 4f 4b-
8cL 8e-
8B-J 8d 8f
4A 4c 4ee- 4gg
8ddL 8ff
8FJ 8cc 8ee-
=30
4d 4f 4b- 4dd
8cL 8e-
8B-J 8d 8f
4A 4c 4ee- 4gg
8ddL 8ff
8FJ 8cc 8ee-
=31
[16B-LL [16d 16b- 16dd
16B-J_ 16d_ 16cc 16ee-
16B-L_ 16d_ 16dd 16ff
16B-JJ] 16d] 16ee- 16gg
[16ALL [16c 16ff 16aa
16AJ] 16c] 16gg 16bb-
[16GL [16B- 16aa 16ccc
16GJJ] 16B-] 16bb- 16ddd
16FLL 16A [16ccc [16eee-
16GJ 16B- 16ccc_ 16eee-_
16AL 16c 16ccc_ 16eee-_
16B-JJ 16d 16ccc_ 16eee-_
16cLL 16e- 16ccc_ 16eee-_
16dJ 16f 16ccc_ 16eee-_
16e-L 16g 16ccc_ 16eee-_
16fJJ 16a 16ccc] 16eee-_
=32
2f [2a [2ccc 2eee-]
2f#X 2a] 2ccc] [2ddd
=33
2g [2b- 2bb- 2ddd]
2en 2b-] 2gg 2ddd-X
=34
2f 2a 2ee- 2ccc
2g 2b- 2dd 2bb-
=35
[2.d 2.f [2.b- 2.aa-X
4d] 4b-_ 4ff#X
=36
[8e-L 8b-_ 8gg
8e-J] 8b-] 8ff#X
8ggL
8bb-J
8bnL
8ccJ
8ee-L
8ggJ
=37
[16FLL 16B- 16d [16f
16FJ_ 16A 16c#X 16f_
16FL_ 16B- 16d 16f_
16FJJ] 16A 16c#X 16f_
8B-L 8d 8f_
8dJ 8f] 8b-
[8FFL [8ccn
8FFJ] 8A 8e- 8cc_
8AL 8e- 8cc_
8AJ 8e- 8cc]
=38
[16B-LL [16d [16b-
16AJ 16B-_ 16d_ 16b-_
16B-L_ 16d_ 16b-_
16AJJ 16B-] 16d] 16b-]
4B-
[8aL [8cc [8ee-
8FJ 8a_ 8cc_ 8ee-_
8FL 8a_ 8cc_ 8ee-_
8B-J 8a] 8cc] 8ee-]
=39
16B-LL [16b- [16dd
16AJ 16b-_ 16dd_
16B-L 16b-_ 16dd_
16AJJ 16b-_ 16dd_
4B- 4b-] 4dd]
[8ccL [8ee- [8aa
8FJ 8cc_ 8ee-_ 8aa_
8FL 8cc_ 8ee-_ 8aa_
8B-J 8cc] 8ee-] 8aa]
=40
16B-LL [16b- [16dd [16bb-
16AJ 16b-_ 16dd_ 16bb-_
16B-L 16b-_ 16dd_ 16bb-_
16AJJ 16b-_ 16dd_ 16bb-_
4B- 4b-] 4dd] 4bb-]
[8aL [8cc [8ee-
8FJ 8a_ 8cc_ 8ee-_
8FL 8a_ 8cc_ 8ee-_
8B-J 8a] 8cc] 8ee-]
=41
16B-LL [16b- [16dd
16AJ 16b-_ 16dd_
16B-L 16b-_ 16dd_
16AJJ 16b-_ 16dd_
4B- 4b-] 4dd]
[8cL [8e- [8a
8FFJ 8c_ 8e-_ 8a_
8FFL 8c_ 8e-_ 8a_
8BB-J 8c] 8e-] 8a]
=42
16BB-LL [16B- [16d [16b-
16AAJ 16B-_ 16d_ 16b-_
16BB-L 16B-_ 16d_ 16b-_
16AAJJ 16B-] 16d] 16b-]
4BB-
4.r
8d 8f
=43
4dd 4ff
8ccL 8ee-
8b-J 8dd
[8aL [8cc
8cJ 8a_ 8cc_
8cL 8a_ 8cc_
8fJ 8a] 8cc]
=44
16fLL [16b- [16dd
16enJ 16b-_ 16dd_
16fL 16b-_ 16dd_
16enJJ 16b-_ 16dd_
4f 4b-] 4dd]
[8aL [8ee-X
8cJ 8a_ 8ee-_
8cL 8a_ 8ee-_
8fJ 8a] 8ee-]
=45
16fLL [16b- [16dd
16enJ 16b-_ 16dd_
16fL 16b-_ 16dd_
16enJJ 16b-_ 16dd_
4f 4b-] 4dd]
[8gL [8een
8cJ 8g_ 8ee_
8cL 8g_ 8ee_
8fJ 8g] 8ee]
=46
16fLL [16a [16ff
16enJ 16a_ 16ff_
16fL 16a_ 16ff_
16enJJ 16a_ 16ff_
4f 4a] 4ff]
[8eenL [8bb-
8cJ 8ee_ 8bb-_
8cL 8ee_ 8bb-_
8fJ 8ee] 8bb-]
=47
16fLL [16ff [16aa
16enJ 16ff_ 16aa_
16fL 16ff_ 16aa_
16enJJ 16ff] 16aa]
4f
4.r
8f
=48
8ffL 8aa-X
8ee-J 8gg
8ddL 8ff
8ccJ 8ee-
4bn 4dd
8r
8G
=49
4e- 4g
8dL 8f
8cJ 8e- 8g
4Bn 4d 4ff 4aa-X
8ee-L 8gg
8GJ 8dd 8ff
=50
4e- 4g 4cc 4ee-
8dL 8f
8cJ 8e- 8g
4Bn 4d 4ff 4aa-X
8ee-L 8gg
8GJ 8dd 8ff
=51
4c 4e- 4cc 4ee-
8B-L 8d-X
8A-XJ 8c 8e-
4G 4B- 4dd-X 4ff
8ccL 8ee-
8E-J 8b- 8dd-X
=52
4A-X 4c 4a-X 4cc
8GL 8B-
8FJ 8A-X 8c
4En 4G 4b- 4dd-X
8a-XL 8cc
8CJ 8g 8b-
=53
4F 4A-X 4f 4a-X
8EnL 8G
8FJ 8A-X 8f 8a-X
[4FF 4F 4cc 4aa-X
8FFL_ [8d [8a-X 8ff
8FFJ] 8d] 8a-] 8dd
=54
[16GGLL [16d 16g [16bn
16GGJ] 16d_ 16f#X 16b_
[16GGL 16d_ 16g 16b_
16GGJJ] 16d_ 16f#X 16b_
8GGL 8d_ 8g 8b_
8GGJ 8d] 8b]
[16FnLL [16Bn 16g [16dd
16FJ] 16B_ 16f#X 16dd_
[16FnL 16B_ 16g 16dd_
16FJJ] 16B_ 16f#X 16dd_
8FnL 8B_ 8g 8dd_
8FJ 8B] 8dd]
=55
[16E-LL [16c 16g [16cc
16E-J] 16c_ 16f#X 16cc_
[16E-L 16c_ 16g 16cc_
16E-JJ] 16c_ 16f#X 16cc_
8E-L 8c_ 8g 8cc_
8E-J 8c] 8cc]
[16BBnLL [16d 16g [16ffn
16BBJ] 16d_ 16f#X 16ff_
[16BBnL 16d_ 16g 16ff_
16BBJJ] 16d_ 16f#X 16ff_
8BBnL 8d_ 8g 8ff_
8BBnJ 8d] 8ff]
=56
[16CLL [16e- 16g [16ee-
16CJ] 16e-_ 16f#X 16ee-_
[16CL 16e-_ 16g 16ee-_
16CJJ] 16e-_ 16f#X 16ee-_
8CL 8e-_ 8g 8ee-_
8CJ 8e-_ 8ee-_
[16CLL 16e-_ 16a-X 16ee-_
16CJ] 16e-_ 16g 16ee-_
[16CL 16e-_ 16a-X 16ee-_
16CJJ] 16e-_ 16g 16ee-_
8CL 8e-_ 8a-X 8ee-_
8CJ 8e-] 8ee-]
=57
[8DL [8B- [8f [8a-X 8aa-X
8DJ_ 8B-_ 8f_ 8a-_ 8ff
8DL_ 8B-_ 8f_ 8a-_ 8dd
8DJ_ 8B-_ 8f_ 8a-_ 8b-
8DL_ 8B-_ 8f_ 8a-_
8DJ_ 8B-_ 8f_ 8a-_
8DL_ 8B-_ 8d 8f_ 8a-_
8DJ] 8B-_ 8f_ 8a-]
=58
4D 4A-X 4B- 4f] 4a-X]
2r
8r
8B-
=59
[8gL
8E-J 8g]
8FL 8f
8GJ 8e-
[8A-XL [8B- [8d
8A-J_ 8B-_ 8d_ 8f
8A-L_ 8B-_ 8d_ 8f
8A-J] 8B-] 8d] 8b-
=60
[16GLL [16B- [16e- 16b-
16GJ_ 16B-_ 16e-_ 16a
16GL_ 16B-_ 16e-_ 16b-
16GJJ_ 16B-_ 16e-_ 16a
8GL_ 8B-] 8e-_ [8b-
8E-J 8G] 8e-] 8b-]
[8A-XL [8B- [8d
8A-J_ 8B-_ 8d_ 8f
8A-L_ 8B-_ 8d_ 8f
8A-J] 8B-_ 8d] 8b-
=61
[16GLL 16B-_ [16e- 16b-
16GJ_ 16B-_ 16e-_ 16a
16GL_ 16B-_ 16e-_ 16b-
16GJJ] 16B-] 16e-] 16a
16b-LL
16ee-J
16e-L
16ee-JJ
8e-L
8ee-J
8ee-L
8ee-J
=62
[16GLL [16d-X [16en 16b-
16GJ_ 16d-_ 16e_ 16a
16GL_ 16d-_ 16e_ 16b-
16GJJ] 16d-] 16e] 16a
16b-LL
16dd-XJ
16enL
16dd-XJJ
8enL
8dd-XJ
8dd-L
8dd-J
=63
[16A-XLL [16f 16cc
16A-J_ 16f_ 16bn
16A-L_ 16f_ 16cc
16A-JJ] 16f] 16bn
16ccLL
16ffJ
16fL
16ffJJ
8fL
8ffJ
8ffL
8ffJ
=64
[16ALL [16e- [16f#X 16cc
16AJ_ 16e-_ 16f#_ 16bn
16AL_ 16e-_ 16f#_ 16cc
16AJJ] 16e-] 16f#] 16bn
16ccLL
16ee-J
16f#XL
16ee-JJ
8f#XL
8ee-J
8ee-L
8ee-J
=65
[16B-LL [16g 16dd
16B-J_ 16g_ 16cc#X
16B-L_ 16g_ 16dd
16B-JJ] 16g] 16cc#X
16ddLL
16ggJ
16gL
16ggJJ
8gL
8ggJ
8ggL
8ggJ
=66
[16BnLL [16g 16dd
16BJ_ 16g_ 16cc#X
16BL_ 16g_ 16dd
16BJJ] 16g] 16cc#X
16ddLL
16ffJ
16gL
16ffJJ
8gL
8ffJ
8ffL
8ffJ
=67
16cLL [16g [16cc [16ee-
16BnJ 16g_ 16cc_ 16ee-_
16cL 16g_ 16cc_ 16ee-_
16BnJJ 16g_ 16cc_ 16ee-_
8cL 8g_ 8cc_ 8ee-_
8CJ 8g_ 8cc_ 8ee-_
8E-L 8g_ 8cc_ 8ee-_
8GJ 8g_ 8cc_ 8ee-_
8cL 8g_ 8cc_ 8ee-_
8GJ 8g] 8cc_ 8ee-_
=68
8A-XL [8a-X 8cc_ 8ee-_
8AA-XJ 8a-_ 8cc_ 8ee-_
8CL 8a-_ 8cc_ 8ee-_
8E-J 8a-_ 8cc_ 8ee-_
8A-XL 8a-_ 8cc_ 8ee-_
8cJ 8a-_ 8cc_ 8ee-_
8AA-XL 8a-_ 8cc_ 8ee-_
8GGJ 8a-] 8cc_ 8ee-]
=69
8FF#XL [8a 8cc_ [8dd
8AAJ 8a_ 8cc_ 8dd_
8CL 8a_ 8cc_ 8dd_
8DJ 8a_ 8cc_ 8dd_
8F#XL 8a_ 8cc_ 8dd_
8AJ 8a_ 8cc_ 8dd_
8cL 8a_ 8cc_ 8dd_
8dJ 8a_ 8cc_ 8dd_
=70
4f#X 4a] 4cc] 4dd]
2r
8r
8d
=71
[8b-L
8GJ 8b-]
8AL 8a
8B-J 8g
[8cL [8d [8f#X
8cJ_ 8d_ 8f#_ 8a
8cL_ 8d_ 8f#_ 8a
8cJ] 8d] 8f#] 8dd
=72
[16GLL [16B- [16g 16dd
16GJ_ 16B-_ 16g_ 16cc#X
16GL_ 16B-_ 16g_ 16dd
16GJJ_ 16B-_ 16g] 16cc#X
8GL] 8B-] 8dd
8B-J 8d 8g
8AL 8cn 8f#X
8GJ 8B- 8g
8F#XL 8A 8a
8EnJ 8G 8b-
=73
[8DL [8F#X 8dd
8DJ] 8F#] 8cc
8aaL
8gJ
8f#XL
8gJ
8aL
8b-J
=74
8ddL
8ccJ
4aa 4ccc
4.r
8d
=75
[8b-L
8GJ 8b-]
8AL 8a
8B-J 8g
[8cL [8d [8f#X
8cJ_ 8d_ 8f#_ 8a
8cL_ 8d_ 8f#_ 8a
8cJ] 8d] 8f#] 8dd
=76
[16B-LL [16d [16g 16dd
16B-J_ 16d_ 16g_ 16cc#X
16B-L_ 16d_ 16g_ 16dd
16B-JJ_ 16d_ 16g_ 16cc#X
8B-L_ 8d] 8g_ [8dd
8GJ 8B-] 8g] 8dd]
[8cnL [8d [8f#X
8cJ_ 8d_ 8f#_ 8a
8cL_ 8d_ 8f#_ 8a
8cJ] 8d] 8f#] 8dd
=77
[16B-LL [16d [16g 16dd
16B-J_ 16d_ 16g_ 16cc#X
16B-L_ 16d_ 16g_ 16dd
16B-JJ_ 16d_ 16g_ 16cc#X
8B-L_ 8d] 8g_ [8dd
8B-J] 8g] 8dd]
[8BnL [8f [8g
8BJ_ 8f_ 8g_ 8dd
8BL_ 8f_ 8g_ 8dd
8BJ] 8f] 8g] 8gg
=78
[16cLL [16e- [16g 16gg
16cJ_ 16e-_ 16g_ 16ff#X
16cL_ 16e-_ 16g_ 16gg
16cJJ_ 16e-_ 16g_ 16ff#X
8cL_ 8e-_ 8g] [8gg
8cJ] 8e-] 8gg]
[8BnL [8fn [8g
8BJ_ 8f_ 8g_ 8dd
8BL_ 8f_ 8g_ 8dd
8BJ] 8f] 8g] 8gg
=79
[16cLL [16e- [16g 16gg
16cJ_ 16e-_ 16g_ 16ff#X
16cL_ 16e-_ 16g_ 16gg
16cJJ] 16e-] 16g] 16ff#X
8gg
2r
8B- 8b-
=80
4e- 4ee-
8B-L 8b-
8GJ 8g
4E- 4e-
4D-X 4d-X
=81
[2C-X 2c-X
4C-_ 4G-X [4A [4e-
8C-L_ 8F 8A_ 8e-_
8C-J] 8E- 8A] 8e-]
=82
[16BB-LL 16F [16B- [16d
16BB-J_ 16En 16B-_ 16d_
16BB-L_ 16F 16B-_ 16d_
16BB-JJ_ 16En 16B-_ 16d_
4BB-] 4F 4B-] 4d]
[16BBnLL [16A-X 16d [16f
16BBJ_ 16A-_ 16c#X 16f_
16BBL_ 16A-_ 16d 16f_
16BBJJ_ 16A-_ 16c#X 16f_
4BB] 4A-] 4d 4f]
=83
[16CLL 16G [16c [16e-
16CJ_ 16F#X 16c_ 16e-_
16CL_ 16G 16c_ 16e-_
16CJJ_ 16F#X 16c_ 16e-_
4C] 4G 4c] 4e-]
[16C#XLL [16B- 16en [16g
16C#J_ 16B-_ 16d#X 16g_
16C#L_ 16B-_ 16en 16g_
16C#JJ_ 16B-_ 16d#X 16g_
4C#] 4B-] 4en 4g]
=84
[16DLL 16A [16d [16f#X
16DJ_ 16G#X 16d_ 16f#_
16DL_ 16A 16d_ 16f#_
16DJJ_ 16G#X 16d_ 16f#_
4D_ 4A 4d] 4f#]
16DLL_ [16c 16f#X [16a
16DJ_ 16c_ 16en 16a_
16DL_ 16c_ 16f#X 16a_
16DJJ] 16c_ 16en 16a_
4c] 4f#X 4a]
=85
[16CLL [16e- [16f#X [16a 16cc
16CJ_ 16e-_ 16f#_ 16a_ 16bn
16CL_ 16e-_ 16f#_ 16a_ 16cc
16CJJ] 16e-] 16f#] 16a] 16bn
16ccLL
16ee-J
16e-L
16ee-JJ
8e-L
8aaJ
8ff#XL
8ee-J
=86
[16CLL [16e- [16f#X [16a 16cc
16CJ_ 16e-_ 16f#_ 16a_ 16bn
16CL_ 16e-_ 16f#_ 16a_ 16cc
16CJJ] 16e-] 16f#] 16a] 16bn
16ccLL
16ee-J
16e-L
16ee-JJ
8e-L
8cccJ
8aaL
8ff#XJ
=87
[2C [2A [2f#X [2ee-
8CL_ 8A_ 8f#_ 8ee-]
8CJ] 8A] 8f#] 8dd
8ccL
8b-J
=88
8aL
8ccJ
8ee-L
8ff#XJ
8aaL
8bb-J
8cccL
8dddJ
=89
8eee-L
8aaJ
8cccL
8ff#XJ
8aaL
8ee-J
[8F#XL [8d 8dd
8F#J] 8d] 8cc
=90
[8GL [8d 8b-
8GJ] 8d] 8ff#X
8ggL
8b-J
8aL
8ccJ 8ee-
8b-L 8dd
8DJ 8c 8d 8f#X
=91
4B- 4g 4dd
8AL 8cc
8GJ 8d 8b-
4F#X 4a 4cc 4ee-
8b-L 8dd
8DJ 8d 8a 8cc
=92
4B- 4g 4b- 4dd
8AL 8cc
8GJ 8d 8b-
4F#X 4a 4cc 4ee-
8b-L 8dd
8DJ 8a 8cc
=93
[16GLL [16B- 16g 16b-
16GJ_ 16B-_ 16a 16cc
16GL_ 16B-_ 16b- 16dd
16GJJ] 16B-] 16cc 16een
[16F#XLL [16A 16dd 16ff#X
16F#J] 16A] 16een 16gg
[16EnL [16G 16ff#X 16aa
16EJJ] 16G] 16gg 16bb-
16DLL 16F#X [16aa [16ccc
16EnJ 16G 16aa_ 16ccc_
16F#XL 16A 16aa_ 16ccc_
16GJJ 16B- 16aa_ 16ccc_
16ALL 16c 16aa_ 16ccc_
16B-J 16d 16aa_ 16ccc_
16cL 16e-X 16aa_ 16ccc_
16dJJ 16f#X 16aa_ 16ccc_
=94
2d 2f#X 2aa] 2ccc]
2e- 2g 2gg 2bb-
=95
2c 2a-X 2ee- 2aa-X
2c#X 2b- 2een 2gg
=96
[8dL
8dJ] 8ff#X
8ggL
8aaJ
8bb-L
8ggJ
8ddL
8b-J
=97
[16DLL 16G 16B- [16d
16DJ_ 16F#X 16A 16d_
16DL_ 16G 16B- 16d_
16DJJ] 16F#X 16A 16d_
[8GL 8B- 8d_
8GJ] 8d] 8g
[8DDL [8a
8DDJ] 8c 8f#X 8a_
8cL 8f#X 8a_
8cJ 8f#X 8a]
=98
16GLL [16B- [16g
16F#XJ 16B-_ 16g_
16GL 16B-_ 16g_
16F#XJJ 16B-] 16g]
4G
[8f#XL [8a [8cc
8DJ 8f#_ 8a_ 8cc_
8DL 8f#_ 8a_ 8cc_
8GJ 8f#] 8a] 8cc]
=99
16GLL [16g [16b-
16F#XJ 16g_ 16b-_
16GL 16g_ 16b-_
16F#XJJ 16g_ 16b-_
4G 4g] 4b-]
[8aL [8cc [8ff#X
8DJ 8a_ 8cc_ 8ff#_
8DL 8a_ 8cc_ 8ff#_
8GJ 8a] 8cc] 8ff#]
=100
16GLL [16b- [16gg
16F#XJ 16b-_ 16gg_
16GL 16b-_ 16gg_
16F#XJJ 16b-_ 16gg_
4G 4b-] 4gg]
[8dL [8fn [8bn
8DJ 8d_ 8f_ 8b_
8DL 8d_ 8f_ 8b_
8GJ 8d] 8f] 8b]
=101
16GLL [16e- [16g [16cc
16F#XJ 16e-_ 16g_ 16cc_
16GL 16e-_ 16g_ 16cc_
16F#XJJ 16e-_ 16g_ 16cc_
4G 4e-] 4g] 4cc]
[8cL [8e- [8f#X
8DJ 8c_ 8e-_ 8f#_
8DL 8c_ 8e-_ 8f#_
8GJ 8c] 8e-] 8f#]
=102
16GLL [16B- [16d [16g
16F#XJ 16B-_ 16d_ 16g_
16GL 16B-_ 16d_ 16g_
16F#XJJ 16B-_ 16d_ 16g_
4G 4B-] 4d] 4g]
[8BnL [8d [8fn
8DDJ 8B_ 8d_ 8f_
8DDL 8B_ 8d_ 8f_
8GGJ 8B] 8d] 8f]
=103
16GGLL [16c [16e-
16FF#XJ 16c_ 16e-_
16GGL 16c_ 16e-_
16FF#XJJ 16c_ 16e-_
4GG 4c] 4e-]
[8F#XL [8A [8c
8DDJ 8F#_ 8A_ 8c_
8DDL 8F#_ 8A_ 8c_
8GGJ 8F#] 8A] 8c]
=104
16GGLL [16G [16Bn
16FF#XJ 16G_ 16B_
16GGL 16G_ 16B_
16FF#XJJ 16G] 16B]
4GG
2r
=||
*-
